icon-themes/breeze_svg/cmd/32/resetattributes.svg

<svg viewBox="0 0 32 32" xmlns="http://www.w3.org/2000/svg"><path d="m15 4v1h5l-10 22h-3v1h10v-1h-5l10-22h3v-1z" fill="#4d4d4d"/><path d="m20.707031 20-.707031.707031 3.292969 3.292969-3.292969 3.292969c.0126.0252.707031.707031.707031.707031l3.292969-3.292969 3.292969 3.292969.707031-.707031-3.292969-3.292969 3.292969-3.292969-.707031-.707031-3.292969 3.292969z" fill="#da4453"/></svg>

<svg xmlns="http://www.w3.org/2000/svg" viewBox="0 0 32 32">
 <path 
     style="fill:#4d4d4d" 
     d="M 15 4 L 15 5 L 20 5 L 10 27 L 7 27 L 7 28 L 17 28 L 17 27 L 12 27 L 22 5 L 25 5 L 25 4 L 15 4 z "
     />
 <path 
     style="fill:#da4453" 
     d="M 20.707031 20 L 20 20.707031 L 23.292969 24 L 20 27.292969 C 20.0126 27.318169 20.707031 28 20.707031 28 L 24 24.707031 L 27.292969 28 L 28 27.292969 L 24.707031 24 L 28 20.707031 L 27.292969 20 L 24 23.292969 L 20.707031 20 z "
     />
</svg>
